X:1
T:Plus ne beuvray
T:Plus ne beuvray
T:Tielman Susato
C:Tielman Susato
%%score [ 1 [ 2 3 ] 4 ]
L:1/8
Q:1/4=84
M:2/2
K:F
V:1 treble nm="Superius" snm="S"
V:2 treble-8 nm="Tenor 1" snm="T 1"
V:3 treble-8 nm="Tenor 2" snm="T 2"
V:4 bass nm="Bass" snm="B"
V:1
 G4 G2 G2 | B6 B2 | A2 G2 d4 | c2 B4 AG | F4 z2 G2 | A2 B2 c4 | c2 c2 B4 | A2 A2 G2 B2- | %8
w: Plus ne beu-|vray de|vos- tre vin,|ma da- * *|me, il|a du feu,|je m'en suis|ap- per- * *|
 BA G4 F2 | G4 z4 | G4 G2 G2 | B6 B2 | A2 G2 d4 | c2 B4 AG | F4 z2 G2 | A2 B2 c4 | c2 c2 B4 | %17
w: |cheu,|veu que de-|puis que|j'en beuz, sur|mon a- * *|me ung|feu ar- dant|en mon cueur|
 A2 A2 G2 B2- | BA G4 F2 | G4 z4 | B4 B2 B2 | A6 B2 | c3 B A2 G2- | GF B4 A2 | B4 z2 d2 | %25
w: j'ay con- ceu, [j'ay|_ _ _ con-|ceu,]|je fuz en|ce tres|gran- * * de-|* * ment de-|ceu, car|
 B2 d2 c2 A2 | B4 c4 | B3 A GF G2- | GF F4 E2 | F4 z2 F2 | B4 c4 | d6 c2 | d2 f4 e2 | %33
w: en pen- sant ma|soif ren-|dre _ _ _ con-|* * ten- *|te, tant|plus j'en|beuz, plus|de soif j'ay|
 d3 c/B/ AB c2 | B2 A2 B3 c | d2 e3 d d2- | d2 c2 d4- | d4 z4 |: z2 d3 d d2 | c2 B4 AG | %40
w: re- * * * * *|||* * ceu,|_|que de- puis|lors tous- * *|
 A2 B3 A F2 | G4 F4 | z2 A2 B4 | A2 F2 A2 B2- |"^#" BA G4 F2 | G6 FE |1 D4 z4 :|2 G8- || G8- | %49
w: jours croist, _ _|_ _|tous- jours|croist et aug- men-|||te,|te.|_|
 G8- | G8- | G8 |] %52
w: |||
V:2
 d4 B2 c2 | d8 | z2 G2 A2 B2 | G2 F2 G4 | A2 d3 c c2- | c2 B2 A2 G2 | A4 G2 G2 | A3 B c2 d2 | %8
w: Plus ne beu-|vray|de vos- tre|vin, ma- da-|||* me, il|a du feu, je|
w: ||||||||
"^b" d2 e2 d2 d2 | B4 z4 | d4 _e2 e2 | d8 | z2 G2 A2 B2 | G2 F2 G4 | A2 d3 c c2- | c2 B2 A2 G2 | %16
w: m'en suis ap- per-|cheu,|veu que de-|puis|que j'en beuz,|sur mon a-|me, que j'en beuz|_ _ sur mon|
w: ||||||||
 A4 G2 G2 | A3 B c2 d2 |"^b" d2 e2 d2 d2 | B4 z4 | d4 d2 d2 | f4 F4 | A6 B2 | c2 d2 f4 | z2 g4 d2 | %25
w: a- me ung|feu ar- dant en|mon cueur j'ay con-|ceu,|je fuz en|ce tres|gran- de-|ment de- ceu,|car en|
w: |||||||||
 g2 f4 f2 | g2 g2 e2 f2 | d4 e4 | d2 d2 c4 | A2 F2 B3 A | GF B4 A2 | B3 c de f2 | d6 c2 | f6 _e2 | %34
w: pen- sant ma|soif ren- dre con-|ten- *|te, tant plus|j'en beuz, [tant _|_ _ plus j'en|beuz, _ _ _ ]|plus de|soif _|
w: |||||||||
 d2 c2 B3 A/G/ | A2 c2 B4 | c4 A2 B2- | B2 AG A4 |: G4 z4 | z2 g3 g g2 |"^b" f2 d2 e2 d2 | %41
w: j'ay _ _ _ _|ceu, plus de|soif j'ay _|_ _ _ re-|ceu,|que de- puis|lors tous- jours croist|
w: ||||2..te,|||
 B2 c2 d4 | c2 BA G4 | A4 z2 d2- |"^b" d2 e2 d4 | B4 c2 d2 |1 B2 AG A4 :|2 B4 c2 d2 || B2 AG F4 | %49
w: et aug- men-||te, tous-|* jours croist|et- aug- men-||et aug- men-||
w: ||||||||
 G4 z2 d2- |"^b" d2 e2 d4 |"^-natural" B8 |] %52
w: te et|_ aug- men-|te.|
w: |||
V:3
 z4 G4 | G2 G2 B2 B2 | c2 c2 d2 d2 |"^b" e2 d4 c2 | d2 f2 e4 | d4 z4 | z2 A2 B3 c | %7
w: Plus|ne beu- vray de|vos- tre vin ma|da- * *|me, ma da-|me,|il a du|
"^b" d2 d2 e2 d2 | B2 c2 A4 | G8 | z4 G4 | G2 G2 B2 B2 | c2 c2 d2 d2 |"^b" e2 d4 c2 | d2 f2 e4 | %15
w: feu, je m'en suis|ap- per- *|cheu,|veu|que de- puis que|j'en beuz, sur mon|a- * *|me ung feu|
 d4 c4 | z2 A2 B3 c |"^b" d2 d2 e2 d2 | B2 c2 A4 | G8 | z8 | d4 d2 d2 | c6 d2 |"^b" e2 d2 c2 c2 | %24
w: ar- dant|en mon _|_ cueur j'ay _|_ _ con-|ceu,||je fuz en|ce tres|gran- de- ment de-|
 B8 | z4 z2 d2 | B2 d2 c2 A2 | B4 c3 B | A2 B2 G4 | F8 |"^b" z2 B2 e4 | d4 z2 F2 | B6 c2 | d6 c2 | %34
w: ceu,|car|en pen- sant ma|soif ren- *|dre con- ten-|te,|con- ten-|te, tant|plus j'en|beuz, plus|
 d2 f4 e2 | f2 g3 fed | e4 d4 | z2 d3 d d2 |: c2 B4 AG | A2 B2 G4 | z2 F2 G2 B2- | B2 G2 A2 d2 | %42
w: de soif j'ay|_ _ _ _ _|re- ceu,|que de- puis|lors tous- * *|* jours croist|et aug- men-|* * te, tous-|
"^b" e2 d4 B2 | c2 d2 G3 A | B2 c2 A4 | G4 z4 |1 z2 d3 d d2 :|2 G8- || G8- | G8- | G8- | G8 |] %52
w: jors croist et|aug- men- * *||te,|que de- puis|te.|_||||
V:4
 G,4 G,2 C,2 | G,6 G,2 | F,2 E,2 D,2 B,,2 |"^b" C,2 D,2 E,4 |"^#" D,2 D,2 E,4 | F,2 G,2 C,2 C,2 | %6
w: Plus ne beu-|vray de|vos- tre vin ma|da- * *|me, il a|du feu, je m'en|
 F,4 G,2 G,2 | D,4 z2 G,2 | G,2 C,2 D,2 D,2 | G,,4 z4 | G,4 _E,2 C,2 | G,6 G,2 | F,2 E,2 D,2 B,,2 | %13
w: suis ap- per-|cheu, je|m'en suis ap- per-|cheu,|veu que de-|puis que|j'en beuz, sur mon|
"^b" C,2 D,2 E,4 | D,2 D,2 E,4 | F,2 G,2 C,2 C,2 | F,4 G,2 G,2 | D,4 z2 G,2- | G,2 C,2 D,4 | G,,8 | %20
w: a- * *|me ung feu|ar- dant en mon|cueur j'ay con-|ceu, j'ay|_ _ con-|ceu,|
 G,4 G,2 G,2 | D,6 B,,2 |"^b" F,6 E,D, | C,2 B,,2 F,2 F,2 | B,,4 z2 B,2 | G,2 B,2 A,2 D,2 | %26
w: je fuz en|ce tres|gran- * *|* de- ment de-|ceu, car|en pen- sant ma|
 G,2 G,2 A,2 F,2 | G,4 C,2 C,2 | D,2 B,,2 C,4 | D,6 D,2 | E,3 D, C,2 C,2 | B,,2 B,4 A,2 | %32
w: soif ren- dre con-|ten- te, ren-|dre con- ten-|te, tant|plus _ _ j'en|beuz, plus de|
 G,2 D,2 G,2 A,2 | D,4 z2 A,2 | B,2 F,2 G,4 | D,2 C,2 G,2 B,2 | A,4 D,2 G,2- | G,G, G,2 F,2 D,2 |: %38
w: soif j'en ay re-|ceu, plus|de soif j'ay|re- * * *|* ceu, que|_ de- puis lors tous-|
 E,2 G,3 F,D,E, |"^b" F,2 G,2 E,4 | D,4 z2 D,2 |"^b" E,4 D,2 B,,2 | C,2 D,2 G,,2 G,2 | %43
w: jours croist, _ _ _|_ _ _|* et|aug- men- *|* * te, et|
 F,2 D,2 E,2 G,2- | G,2 C,2 D,4 | G,,4 z2 G,2- |1 G,G, G,2 F,2 D,2 :|2 G,,8- || G,,8- | G,,8- | %50
w: aug- men- * *||te, que|_ de- puis lors tous-|te.|_||
 G,,8- | G,,8 |] %52
w: ||

